icons/svg/houzz-box.svg

﻿<?xml version="1.0" encoding="utf-8"?>
<!DOCTYPE svg PUBLIC "-//W3C//DTD SVG 1.1//EN" "http://www.w3.org/Graphics/SVG/1.1/DTD/svg11.dtd">
<svg xmlns="http://www.w3.org/2000/svg" xmlns:xlink="http://www.w3.org/1999/xlink" version="1.1" baseProfile="full" width="24" height="24" viewBox="0 0 24.00 24.00" enable-background="new 0 0 24.00 24.00" xml:space="preserve">
	<path fill="#0D0E0E" fill-opacity="1" stroke-linejoin="round" d="M 12,3.98965L 7.41035,6.68965L 7.41035,11.9998L 12,9.3L 12,3.98965 Z M 12,9.3L 12,14.7L 12,20.0104L 16.5896,17.3104L 16.5896,12L 16.5896,6.6L 12,9.3 Z M 12,14.7L 7.41035,12.0002L 7.41035,17.4L 12,14.7 Z M 4.9793,3L 19.0207,3C 20.1007,3 21,3.8993 21,4.9793L 21,19.0207C 21,20.1007 20.1007,21 19.0207,21L 4.9793,21C 3.8993,21 3,20.1007 3,19.0207L 3,4.9793C 3,3.8993 3.8993,3 4.9793,3 Z "/>
</svg>

<svg xmlns="http://www.w3.org/2000/svg" version="1.1" baseProfile="full" width="24" height="24" viewBox="0 0 24.00 24.00" xml:space="preserve"><path fill="#0D0E0E" fill-opacity="1" stroke-linejoin="round" d="M12 3.99l-4.59 2.7V12L12 9.3V3.99zm0 5.31v10.71l4.59-2.7V6.6L12 9.3zm0 5.4L7.41 12v5.4L12 14.7zM4.98 3h14.04C20.1 3 21 3.9 21 4.98v14.04c0 1.08-.9 1.98-1.98 1.98H4.98C3.9 21 3 20.1 3 19.02V4.98C3 3.9 3.9 3 4.98 3z"/></svg>
